flaticon/army-badges/medal-26.svg

<svg xmlns="http://www.w3.org/2000/svg" width="32" height="32" viewBox="0 0 24 24">
    <path d="M 10 18.800781 C 10 19.921875 10.878906 20.800781 12 20.800781 C 13.121094 20.800781 14 19.921875 14 18.800781 C 14 17.679688 13.121094 16.800781 12 16.800781 C 10.878906 16.800781 10 17.679688 10 18.800781 Z M 13.199219 18.800781 C 13.199219 19.480469 12.679688 20 12 20 C 11.320312 20 10.800781 19.480469 10.800781 18.800781 C 10.800781 18.121094 11.320312 17.601562 12 17.601562 C 12.679688 17.601562 13.199219 18.121094 13.199219 18.800781 Z M 13.199219 18.800781"/>
    <path d="M 16.398438 6.800781 L 16.398438 2.800781 L 16.800781 2.800781 C 17.039062 2.800781 17.199219 2.640625 17.199219 2.398438 L 17.199219 0.398438 C 17.199219 0.160156 17.039062 0 16.800781 0 L 7.199219 0 C 6.960938 0 6.800781 0.160156 6.800781 0.398438 L 6.800781 2.398438 C 6.800781 2.640625 6.960938 2.800781 7.199219 2.800781 L 7.601562 2.800781 L 7.601562 9.199219 L 7.199219 9.199219 C 6.960938 9.199219 6.800781 9.359375 6.800781 9.601562 L 6.800781 11.601562 C 6.800781 11.839844 6.960938 12 7.199219 12 L 10.617188 12 C 10.480469 12.234375 10.398438 12.507812 10.398438 12.800781 C 10.398438 13.4375 10.777344 13.988281 11.316406 14.246094 L 10.601562 15.199219 L 8.800781 15.199219 C 8.558594 15.199219 8.398438 15.359375 8.398438 15.601562 L 8.398438 17.039062 L 6.921875 18.558594 C 6.839844 18.640625 6.800781 18.761719 6.800781 18.839844 C 6.800781 18.921875 6.839844 19.039062 6.921875 19.078125 L 8.398438 20.398438 L 8.398438 22 C 8.398438 22.238281 8.558594 22.398438 8.800781 22.398438 L 10.601562 22.398438 L 11.679688 23.839844 C 11.761719 23.960938 11.878906 24 12 24 C 12.121094 24 12.238281 23.960938 12.320312 23.839844 L 13.398438 22.398438 L 15.199219 22.398438 C 15.441406 22.398438 15.601562 22.238281 15.601562 22 L 15.601562 20.558594 L 17.078125 19.078125 C 17.160156 19 17.199219 18.878906 17.199219 18.761719 C 17.199219 18.640625 17.121094 18.558594 17.039062 18.480469 L 15.601562 17.398438 L 15.601562 15.601562 C 15.601562 15.359375 15.441406 15.199219 15.199219 15.199219 L 13.398438 15.199219 L 12.6875 14.25 C 13.226562 14 13.601562 13.464844 13.601562 12.800781 C 13.601562 12.507812 13.519531 12.234375 13.382812 12 L 16.800781 12 C 17.039062 12 17.199219 11.839844 17.199219 11.601562 L 17.199219 9.601562 C 17.199219 9.359375 17.039062 9.199219 16.800781 9.199219 L 16.398438 9.199219 Z M 15.601562 4.800781 L 8.398438 4.800781 L 8.398438 4 L 15.601562 4 Z M 8.398438 5.601562 L 15.601562 5.601562 L 15.601562 6.398438 L 8.398438 6.398438 Z M 8.398438 7.199219 L 15.601562 7.199219 L 15.601562 8 L 8.398438 8 Z M 7.601562 0.800781 L 16.398438 0.800781 L 16.398438 2 L 16 2 L 16 1.601562 C 16 1.359375 15.839844 1.199219 15.601562 1.199219 L 8.398438 1.199219 C 8.160156 1.199219 8 1.359375 8 1.601562 L 8 2 L 7.601562 2 Z M 8.800781 2.398438 L 8.800781 2 L 15.199219 2 L 15.199219 2.398438 C 15.199219 2.640625 15.359375 2.800781 15.601562 2.800781 L 15.601562 3.199219 L 8.398438 3.199219 L 8.398438 2.800781 C 8.640625 2.800781 8.800781 2.640625 8.800781 2.398438 Z M 13.199219 16 L 14.800781 16 L 14.800781 17.601562 C 14.800781 17.71875 14.839844 17.839844 14.960938 17.921875 L 16.199219 18.839844 L 14.921875 20.121094 C 14.839844 20.199219 14.800781 20.28125 14.800781 20.398438 L 14.800781 21.601562 L 13.199219 21.601562 C 13.078125 21.601562 12.960938 21.640625 12.878906 21.761719 L 12 22.921875 L 11.121094 21.761719 C 11.039062 21.640625 10.921875 21.601562 10.800781 21.601562 L 9.199219 21.601562 L 9.199219 20.238281 C 9.199219 20.160156 9.160156 20.039062 9.078125 19.960938 L 7.800781 18.800781 L 9.078125 17.480469 C 9.160156 17.398438 9.199219 17.320312 9.199219 17.199219 L 9.199219 16 L 10.800781 16 C 10.921875 16 11.039062 15.960938 11.121094 15.839844 L 12 14.679688 L 12.878906 15.839844 C 12.960938 15.960938 13.078125 16 13.199219 16 Z M 12.800781 12.800781 C 12.800781 13.238281 12.441406 13.601562 12 13.601562 C 11.558594 13.601562 11.199219 13.238281 11.199219 12.800781 C 11.199219 12.359375 11.558594 12 12 12 C 12.441406 12 12.800781 12.359375 12.800781 12.800781 Z M 16.398438 11.199219 L 7.601562 11.199219 L 7.601562 10 L 8 10 L 8 10.398438 C 8 10.640625 8.160156 10.800781 8.398438 10.800781 L 15.601562 10.800781 C 15.839844 10.800781 16 10.640625 16 10.398438 L 16 10 L 16.398438 10 Z M 15.199219 9.601562 L 15.199219 10 L 8.800781 10 L 8.800781 9.601562 C 8.800781 9.359375 8.640625 9.199219 8.398438 9.199219 L 8.398438 8.800781 L 15.601562 8.800781 L 15.601562 9.199219 C 15.359375 9.199219 15.199219 9.359375 15.199219 9.601562 Z M 15.199219 9.601562"/>
</svg>

<svg xmlns="http://www.w3.org/2000/svg" width="32" height="32" viewBox="0 0 24 24">
    <path d="M10 18.8c0 1.122.879 2 2 2s2-.878 2-2c0-1.12-.879-2-2-2s-2 .88-2 2zm3.2 0c0 .68-.52 1.2-1.2 1.2-.68 0-1.2-.52-1.2-1.2 0-.679.52-1.198 1.2-1.198.68 0 1.2.52 1.2 1.199zm0 0"/>
    <path d="M16.398 6.8v-4h.403c.238 0 .398-.16.398-.402v-2C17.2.16 17.04 0 16.801 0H7.199c-.238 0-.398.16-.398.398v2c0 .243.16.403.398.403h.403v6.398h-.403c-.238 0-.398.16-.398.403v2c0 .238.16.398.398.398h3.418a1.586 1.586 0 0 0-.219.8c0 .637.38 1.188.918 1.446l-.714.953H8.8c-.242 0-.403.16-.403.403v1.437l-1.476 1.52a.434.434 0 0 0-.121.28c0 .083.039.2.12.24l1.477 1.32V22c0 .238.16.398.403.398h1.8l1.079 1.442c.082.12.199.16.32.16s.238-.04.32-.16l1.078-1.442H15.2c.242 0 .403-.16.403-.398v-1.441l1.476-1.48a.44.44 0 0 0 .121-.317c0-.121-.078-.203-.16-.282l-1.437-1.082v-1.796c0-.243-.16-.403-.403-.403h-1.8l-.711-.949c.539-.25.914-.785.914-1.45 0-.292-.082-.566-.22-.8h3.419c.238 0 .398-.16.398-.398v-2c0-.243-.16-.403-.398-.403h-.403zm-.796-2H8.398V4h7.204zm-7.204.802h7.204v.796H8.398zm0 1.597h7.204V8H8.398zM7.602.801h8.796V2H16v-.398c0-.243-.16-.403-.398-.403H8.398C8.16 1.2 8 1.36 8 1.602V2h-.398zM8.8 2.398V2h6.398v.398c0 .243.16.403.403.403v.398H8.398v-.398c.243 0 .403-.16.403-.403zM13.199 16h1.602v1.602c0 .117.039.238.16.32l1.238.918-1.277 1.281a.353.353 0 0 0-.121.277v1.204h-1.602a.363.363 0 0 0-.32.16L12 22.922l-.879-1.16a.363.363 0 0 0-.32-.16H9.199v-1.364c0-.078-.039-.199-.12-.277L7.8 18.8l1.277-1.32a.361.361 0 0 0 .121-.282V16h1.602c.12 0 .238-.04.32-.16L12 14.68l.879 1.16c.082.12.2.16.32.16zm-.398-3.2c0 .438-.36.802-.801.802a.804.804 0 0 1-.8-.801.802.802 0 0 1 1.6 0zm3.597-1.6H7.602V10H8v.398c0 .243.16.403.398.403h7.204c.238 0 .398-.16.398-.403V10h.398zM15.2 9.601V10H8.801v-.398c0-.243-.16-.403-.403-.403v-.398h7.204v.398c-.243 0-.403.16-.403.403zm0 0"/>
</svg>
